configs/network-logos/lisk-logo-dark.svg

<svg width="107" height="24" viewBox="0 0 107 24" fill="none" xmlns="http://www.w3.org/2000/svg">
<path fill-rule="evenodd" clip-rule="evenodd" d="M9.85317 0.0513186C9.85317 -0.0171062 9.78475 -0.0171062 9.71632 0.0513186L7.732 3.54098C7.732 3.60941 7.732 3.60941 7.732 3.60941L9.78475 7.23592L15.1903 16.8154C15.1903 16.8838 15.1903 16.8838 15.1903 16.9522L12.3165 20.2366L9.30577 23.7947C9.23735 23.8632 9.30577 23.9316 9.3742 23.9316H13.8902C13.8902 23.9316 13.9587 23.9316 13.9587 23.8632L19.5695 17.3628C19.5695 17.2944 19.5695 17.2944 19.5695 17.2259L9.85317 0.0513186ZM7.59515 23.9316L10.6058 20.3735C10.6743 20.3051 10.6058 20.2366 10.5374 20.2366H7.25303C7.25303 20.2366 7.1846 20.2366 7.1846 20.1682L4.37919 16.8838C4.37919 16.8154 4.37919 16.8154 4.37919 16.747L9.1005 8.39914C9.1005 8.33072 9.1005 8.33072 9.1005 8.33072L7.1846 4.84105C7.1846 4.77263 7.04775 4.77263 7.04775 4.84105L0 17.2944C0 17.3628 0 17.3628 0 17.4312L5.61083 23.9316C5.61083 23.9316 5.61083 24 5.67926 24L7.59515 23.9316ZM27.8489 19.0734C27.8489 19.1418 27.9173 19.1418 27.9173 19.1418H32.7755C32.8439 19.1418 32.8439 19.2103 32.8439 19.2103V22.6315C32.8439 22.6999 32.8439 22.6999 32.7755 22.6999H27.8489H24.4961C24.4277 22.6999 24.4277 22.6315 24.4277 22.6315V11.6835V11.6151L27.712 7.78332C27.7805 7.7149 27.8489 7.7149 27.8489 7.85175V19.0734ZM37.5652 22.7684C37.6336 22.7684 37.6336 22.6999 37.6336 22.6999V12.2309C37.6336 12.1625 37.5652 12.0941 37.4968 12.1625L34.2124 15.9943V16.0627V22.6999C34.2124 22.7684 34.2124 22.7684 34.2808 22.7684H37.5652ZM55.4241 17.4312L58.9138 22.6315C58.9138 22.6999 58.9138 22.7684 58.8453 22.7684H55.2188C55.2188 22.7684 55.1504 22.7684 55.1504 22.6999L52.4134 18.3892C52.345 18.3207 52.2766 18.3207 52.2766 18.4576V19.1418V22.6315C52.2766 22.6999 52.2766 22.6999 52.2081 22.6999H48.9237C48.8553 22.6999 48.8553 22.6315 48.8553 22.6315V11.6835V11.6151L52.1397 7.78332C52.2081 7.7149 52.2766 7.7149 52.2766 7.85175V16.1311C52.2766 16.1996 52.345 16.268 52.4134 16.1996L54.8767 12.0257C54.8767 12.0257 54.8767 11.9572 54.9451 11.9572H58.7085C58.7769 11.9572 58.7769 12.0257 58.7769 12.0941L55.4241 17.2944C55.3557 17.3628 55.3557 17.3628 55.4241 17.4312ZM38.7284 20.5788C39.4811 22.1525 40.9865 22.9736 43.176 22.9736C45.2972 22.9736 47.5552 22.0157 47.5552 19.4155C47.5552 16.8154 45.5025 16.3364 43.9287 15.9943H43.8603C43.1076 15.789 42.4234 15.5838 42.4234 15.1732C42.4234 14.8311 42.7655 14.5574 43.2445 14.5574C43.7919 14.5574 44.2024 14.8311 44.5445 15.3785C44.5445 15.4469 44.613 15.4469 44.613 15.4469L47.2131 14.2153C47.2815 14.2153 47.2815 14.1468 47.2131 14.0784C46.5289 12.5731 45.1604 11.8204 43.176 11.8204C40.3706 11.8204 39.139 13.5994 39.139 15.31C39.139 17.7049 41.1917 18.2523 42.6971 18.6629C43.5866 18.8681 44.2024 19.0734 44.2024 19.5524C44.2024 19.8261 44.0656 20.2366 43.176 20.2366C42.4234 20.2366 41.8076 19.8945 41.5339 19.2103C41.5339 19.1418 41.4654 19.1418 41.397 19.1418L38.7284 20.5788Z" fill="white"/>
</svg>

<svg xmlns="http://www.w3.org/2000/svg" fill="none" viewBox="0 0 107 24">
  <path fill="#fff" fill-rule="evenodd" d="M9.853.051c0-.068-.068-.068-.137 0l-1.984 3.49v.068l2.053 3.627 5.405 9.58v.136l-2.873 3.285-3.011 3.558c-.069.068 0 .137.068.137h4.516s.069 0 .069-.069l5.61-6.5v-.137L9.854.05Zm-2.258 23.88 3.01-3.558c.07-.068 0-.136-.068-.136H7.253s-.068 0-.068-.069l-2.806-3.284v-.137l4.722-8.348v-.068L7.184 4.84c0-.068-.137-.068-.137 0L0 17.294v.137l5.61 6.5s0 .069.07.069l1.915-.068Zm20.254-4.858c0 .069.068.069.068.069h4.858c.069 0 .069.068.069.068v3.421c0 .069 0 .069-.069.069h-8.279c-.068 0-.068-.069-.068-.069V11.615l3.284-3.832c.069-.068.137-.068.137.069v11.221Zm9.716 3.695c.069 0 .069-.068.069-.068V12.23c0-.068-.069-.136-.137-.068l-3.285 3.832V22.7c0 .068 0 .068.069.068h3.284Zm17.86-5.337 3.489 5.2c0 .069 0 .137-.069.137H55.22s-.069 0-.069-.068l-2.737-4.31c-.068-.07-.136-.07-.136.068v4.174c0 .068 0 .068-.069.068h-3.284c-.069 0-.069-.069-.069-.069V11.615l3.285-3.832c.068-.068.137-.068.137.069v8.28c0 .068.068.136.136.068l2.464-4.174s0-.069.068-.069h3.764c.068 0 .068.069.068.137l-3.353 5.2c-.068.069-.068.069 0 .137ZM38.727 20.58c.753 1.573 2.258 2.395 4.448 2.395 2.121 0 4.38-.958 4.38-3.558 0-2.6-2.053-3.08-3.627-3.422h-.069c-.752-.205-1.437-.41-1.437-.82 0-.343.343-.617.822-.617.547 0 .957.274 1.3.822 0 .068.068.068.068.068l2.6-1.232c.069 0 .069-.068 0-.137-.684-1.505-2.053-2.258-4.037-2.258-2.805 0-4.037 1.78-4.037 3.49 0 2.395 2.053 2.942 3.558 3.353.89.205 1.505.41 1.505.89 0 .273-.136.684-1.026.684-.753 0-1.368-.342-1.642-1.027 0-.068-.069-.068-.137-.068l-2.669 1.437Z" clip-rule="evenodd"/>
</svg>
